src/images/checker-logo-b.svg

<?xml version="1.0" encoding="UTF-8"?>
<svg width="177px" height="31px" viewBox="0 0 177 31" version="1.1" xmlns="http://www.w3.org/2000/svg" xmlns:xlink="http://www.w3.org/1999/xlink">
    <!-- Generator: sketchtool 53.2 (72643) - https://sketchapp.com -->
    <title>200DF16F-09A5-46B7-B05A-C04155D18103</title>
    <desc>Created with sketchtool.</desc>
    <g id="Symbols" stroke="none" stroke-width="1" fill="none" fill-rule="evenodd">
        <g id="logo/checker_color">
            <g id="checker_logo">
                <path d="M61.4457263,12.4449167 L69.1166595,12.4449167 L69.1166595,4.00258874 L74.4288573,4.00258874 L74.4288573,26 L69.1166595,26 L69.1166595,16.6432388 L61.4457263,16.6432388 L61.4457263,26 L56.1335285,26 L56.1335285,4.00258874 L61.4457263,4.00258874 L61.4457263,12.4449167 Z M94.0012055,8.58998283 L84.2315433,8.58998283 L84.2315433,12.6504928 L94.0012055,12.6504928 L94.0012055,17.2348414 L84.2315433,17.2348414 L84.2315433,21.4057534 L94.0012055,21.4057534 L94.0012055,25.9908633 L78.9193455,25.9908633 L78.9193455,4.00487292 L94.0012055,4.00487292 L94.0012055,8.58998283 Z M122.897245,13.1747121 L129.821781,4.00525361 L136.380963,4.00525361 L127.830641,14.4454773 L136.473609,25.9904826 L129.589419,25.9904826 L122.897245,16.3786547 L122.897245,25.9904826 L117.585048,25.9904826 L117.585048,4.00525361 L122.897245,4.00525361 L122.897245,13.1747121 Z M155.129211,8.58998283 L145.359549,8.58998283 L145.359549,12.6504928 L155.129211,12.6504928 L155.129211,17.2348414 L145.359549,17.2348414 L145.359549,21.4148901 L155.129211,21.4148901 L155.129211,26 L140.047351,26 L140.047351,4.00487292 L155.129211,4.00487292 L155.129211,8.58998283 Z M46.7596288,4.00601501 L51.6384827,4.00601501 L51.6384827,5.0833864 L51.6384827,9.25201423 L46.7596288,9.25201423 L46.7596288,9.26952627 C46.0894401,9.30455036 45.4595972,9.44312393 44.8760773,9.69590647 C44.1984172,9.99056565 43.6156445,10.3910585 43.1285062,10.897385 C42.6398737,11.4044728 42.2558414,12.0074963 41.9756622,12.7064552 C41.6962301,13.406937 41.5557669,14.1614777 41.5557669,14.9716 C41.5557669,15.7999958 41.6962301,16.5644346 41.9756622,17.264155 C42.2558414,17.9646367 42.6443565,18.5714671 43.1412077,19.0869303 C43.6380588,19.6023935 44.2208316,20.0082161 44.8895259,20.3021139 C45.4708044,20.5587034 46.0961644,20.6965156 46.7596288,20.7300169 L46.7596288,20.7460061 L51.6384827,20.7460061 L51.6384827,24.9428055 L51.6384827,25.9920054 L46.7596288,25.9920054 L46.7596288,25.991244 L46.7327316,25.9920054 C45.3236169,25.9920054 43.9727796,25.7209494 42.6809666,25.178076 C41.3891537,24.6344413 40.2505054,23.8707639 39.2657689,22.8847597 C38.2802852,21.9002783 37.4905534,20.7307783 36.8935849,19.3770212 C36.2981107,18.0240254 36,16.5461612 36,14.9441899 C36,13.3422186 36.2928807,11.8734911 36.8801363,10.5387688 C37.4673919,9.20404646 38.253388,8.05281992 39.2388717,7.08585055 C40.222861,6.11888117 41.3659922,5.3643405 42.6667709,4.82070574 C43.9682967,4.27783238 45.3318355,4.00601501 46.7596288,4.00601501 Z M168.358526,12.2999474 C169.497922,12.2999474 170.431105,11.3497287 170.431105,10.1878426 C170.431105,9.02595659 169.497922,8.07573786 168.358526,8.07573786 L164.936604,8.07573786 L164.936604,12.2999474 L168.358526,12.2999474 Z M170.226387,16.3368542 L177,25.9958885 L170.386276,25.9958885 L164.936604,16.8165319 L164.936604,25.9958885 L159.624406,25.9958885 L159.624406,4 L169.914081,4.0228418 C173.241116,4.0228418 175.963711,6.79735866 175.963711,10.1878426 C175.963711,13.4717315 173.409223,16.1685863 170.226387,16.3368542 Z M108.215556,4.00936514 L113.09441,4.00936514 L113.09441,5.08673653 L113.09441,9.25536436 L108.215556,9.25536436 L108.215556,9.27287641 C107.545367,9.30790049 106.915524,9.44571266 106.332005,9.6992566 C105.654344,9.99391578 105.071572,10.3944086 104.584433,10.9007351 C104.095801,11.407823 103.711769,12.010085 103.431589,12.7098054 C103.15141,13.4102871 103.011694,14.1648278 103.011694,14.9749502 C103.011694,15.803346 103.15141,16.5677848 103.431589,17.2675051 C103.711769,17.9679869 104.100284,18.5748173 104.597135,19.0902805 C105.093986,19.6057437 105.676759,20.0115663 106.345453,20.305464 C106.926732,20.5620535 107.552092,20.6998657 108.215556,20.733367 L108.215556,20.7493563 L113.09441,20.7493563 L113.09441,24.9461557 L113.09441,25.9953555 L108.215556,25.9953555 L108.215556,25.9945941 L108.188659,25.9953555 C106.778797,25.9953555 105.428707,25.7235381 104.136894,25.1806648 C102.844334,24.6377914 101.705685,23.8733526 100.720949,22.8881098 C99.7362124,21.9036284 98.9464806,20.7341284 98.3495121,19.3803713 C97.7540379,18.0273755 97.4559272,16.5495113 97.4559272,14.94754 C97.4559272,13.3455687 97.7488079,11.8768412 98.3360635,10.5421189 C98.9233191,9.20739659 99.7093152,8.05617005 100.694052,7.08920068 C101.678788,6.1222313 102.821919,5.36769063 104.122698,4.82405587 C105.424224,4.28118251 106.787763,4.00936514 108.215556,4.00936514 Z" id="Combined-Shape" fill="#000000"></path>
                <path d="M27.6955662,8.4350808 L12.6285545,8.4350808 C10.255291,8.4350808 8.32486751,6.54362662 8.32486751,4.2175404 C8.32486751,1.89218589 10.255291,-6.21724894e-15 12.6285545,-6.21724894e-15 L27.6955662,-6.21724894e-15 C30.0688297,-6.21724894e-15 32,1.89218589 32,4.2175404 C32,6.54362662 30.0688297,8.4350808 27.6955662,8.4350808 Z M15.6891533,4.21746723 C15.6891533,2.59601173 14.3479383,1.28114009 12.6923294,1.28114009 C11.0374673,1.28114009 9.69550556,2.59601173 9.69550556,4.21746723 C9.69550556,5.83892274 11.0374673,7.15379437 12.6923294,7.15379437 C14.3479383,7.15379437 15.6891533,5.83892274 15.6891533,4.21746723 Z" id="Combined-Shape" fill="#0037A6"></path>
                <path d="M19.3318662,11.0064341 C21.7051297,11.0064341 23.6363,12.7508158 23.6363,15.0761704 C23.6363,17.4022566 21.7051297,19.1466383 19.3318662,19.1466383 L4.30443377,19.1466383 C1.93042354,19.1466383 -5.5067062e-14,17.4022566 -5.5067062e-14,15.0761704 C-5.5067062e-14,12.7508158 1.93042354,11.0064341 4.30443377,11.0064341 L19.3318662,11.0064341 Z M17.0620317,17.0615753 C18.1822001,18.2549841 20.0782718,18.3332764 21.2962682,17.2357208 C22.5150114,16.1381652 22.59417,14.2803694 21.4740016,13.0869606 C20.3538332,11.89282 18.4585083,11.8152594 17.239765,12.9128151 C16.0210218,14.0103707 15.9418633,15.8674348 17.0620317,17.0615753 Z" id="Combined-Shape" fill="#002054"></path>
                <path d="M27.6955662,22 C30.0688297,22 32,23.7443817 32,26.0697362 C32,28.3958225 30.0688297,30.1402042 27.6955662,30.1402042 L12.6681338,30.1402042 C10.2948703,30.1402042 8.36370001,28.3958225 8.36370001,26.0697362 C8.36370001,23.7443817 10.2948703,22 12.6681338,22 L27.6955662,22 Z M25.4261051,28.0583607 C26.5462735,29.2517695 28.4423452,29.3300618 29.6603416,28.2317745 C30.878338,27.1342189 30.9582434,25.2771547 29.838075,24.0830142 C28.7179066,22.8903371 26.8218349,22.8113131 25.6038384,23.9096004 C24.3850952,25.0071561 24.3059367,26.8642202 25.4261051,28.0583607 Z" id="Combined-Shape" fill="#002054"></path>
            </g>
        </g>
    </g>
</svg>

<svg xmlns="http://www.w3.org/2000/svg" width="177" height="32" viewBox="0 0 177 32">
    <g fill="none" fill-rule="evenodd">
        <path fill="#FFF" d="M-130-25h1440v80H-130z"/>
        <path fill="#000" d="M61.446 12.445h7.67V4.003h5.313V26h-5.312v-9.357h-7.671V26h-5.312V4.003h5.312v8.442zM94 8.59h-9.77v4.06h9.77v4.585h-9.77v4.17h9.77v4.586H78.92V4.005h15.082V8.59zm28.896 4.585l6.925-9.17h6.559l-8.55 10.44 8.643 11.545h-6.885l-6.692-9.611v9.611h-5.312V4.005h5.312v9.17zM155.13 8.59h-9.77v4.06h9.77v4.585h-9.77v4.18h9.77V26h-15.082V4.005h15.082V8.59zM46.76 4.006h4.88V9.252h-4.88v.018a5.362 5.362 0 0 0-3.631 1.628 5.55 5.55 0 0 0-1.152 1.808c-.28.7-.42 1.455-.42 2.266 0 .828.14 1.592.42 2.292.28.7.668 1.307 1.165 1.823.497.515 1.08.921 1.749 1.215a5.246 5.246 0 0 0 1.87.428v.016h4.878v5.246h-4.905c-1.41 0-2.76-.271-4.052-.814a10.577 10.577 0 0 1-3.415-2.293c-.986-.985-1.775-2.154-2.372-3.508-.596-1.353-.894-2.83-.894-4.433 0-1.602.293-3.07.88-4.405.587-1.335 1.373-2.486 2.359-3.453a10.76 10.76 0 0 1 3.428-2.265 10.525 10.525 0 0 1 4.093-.815zm121.6 8.294c1.139 0 2.072-.95 2.072-2.112 0-1.162-.933-2.112-2.072-2.112h-3.422V12.3h3.422zm1.867 4.037L177 25.996h-6.614l-5.45-9.18v9.18h-5.312V4l10.29.023c3.327 0 6.05 2.774 6.05 6.165 0 3.284-2.555 5.98-5.738 6.149zm-62.01-12.328h4.878v5.246h-4.878v.018a5.362 5.362 0 0 0-3.631 1.628 5.542 5.542 0 0 0-1.153 1.809 6.04 6.04 0 0 0-.42 2.265c0 .828.14 1.593.42 2.293.28.7.668 1.307 1.165 1.822.497.516 1.08.922 1.748 1.215a5.246 5.246 0 0 0 1.87.428v.016h4.88v5.247h-4.88v-.001h-.026c-1.41 0-2.76-.271-4.052-.814a10.57 10.57 0 0 1-3.416-2.293c-.985-.984-1.775-2.154-2.371-3.508-.596-1.353-.894-2.83-.894-4.432 0-1.602.293-3.071.88-4.406a10.978 10.978 0 0 1 2.358-3.453 10.77 10.77 0 0 1 3.429-2.265 10.525 10.525 0 0 1 4.093-.815z"/>
        <path fill="#0037A6" d="M27.696 8.435H12.629c-2.374 0-4.304-1.891-4.304-4.217C8.325 1.892 10.255 0 12.629 0h15.067C30.069 0 32 1.892 32 4.218s-1.931 4.217-4.304 4.217zM15.689 4.217c0-1.621-1.341-2.936-2.997-2.936-1.655 0-2.996 1.315-2.996 2.936 0 1.622 1.341 2.937 2.996 2.937 1.656 0 2.997-1.315 2.997-2.937z"/>
        <path fill="#002054" d="M19.332 11.006c2.373 0 4.304 1.745 4.304 4.07 0 2.326-1.93 4.07-4.304 4.07H4.304C1.93 19.147 0 17.403 0 15.077c0-2.325 1.93-4.07 4.304-4.07h15.028zm-2.27 6.056a3.04 3.04 0 0 0 4.234.174 2.894 2.894 0 0 0 .178-4.149 3.04 3.04 0 0 0-4.234-.174 2.894 2.894 0 0 0-.178 4.149zM27.696 22C30.069 22 32 23.744 32 26.07c0 2.326-1.931 4.07-4.304 4.07H12.668c-2.373 0-4.304-1.744-4.304-4.07 0-2.326 1.93-4.07 4.304-4.07h15.028zm-2.27 6.058a3.04 3.04 0 0 0 4.234.174 2.895 2.895 0 0 0 .178-4.149 3.04 3.04 0 0 0-4.234-.173 2.894 2.894 0 0 0-.178 4.148z"/>
    </g>
</svg>
